static/images/guardarian-logo.svg

<svg height="100" viewBox="0 0 98 100" width="98" xmlns="http://www.w3.org/2000/svg"><g fill="#5364c2"><path d="m80.5825 40.189625c6.1254167 8.1749583-11.8129167 23.9774583-7.7820833 17.4507917h-38.2096667c-4.13375-5.4054167-6.9752917-11.3170834-8.3415833-17.4507917z"/><path d="m69.5083333 87.2941667c-5.43 4.3291666-11.3004166 8.0745833-17.5145833 11.175l-3.0391667 1.5308333-3.0575-1.5245833c-28.746875-14.4258334-45.8970833-39.27375-45.8970833-66.5042084v-31.9712083h17.5329167v31.9712083c-.003125 2.03925.134375 4.0763334.4115416 6.0967084 2.2077917 16.5433333 13.3744584 31.8045833 30.9442917 42.0804166.0166667.0154167.0354167.02875.0558333.03875.0183334-.01.02875-.0204166.0470834-.02875l.0741666-.0470833c6.3504167 3.5516667 13.2658334 5.9816667 20.4425 7.1829167z"/><path d="m97.36625 40.189625c-.81125 6.319125-2.5445833 12.4857917-5.14375 18.3024583-4.8066667 10.8004167-12.5308333 20.6295834-22.7058333 28.8066667-7.1729167-1.2025-14.085-3.6325-20.4320834-7.1833333 2.2929167-1.3516667 4.5158334-2.8183334 6.6604167-4.395.21375-.1383334.4195833-.2879167.6170833-.4483334 11.8766667-8.5525 20.4329167-20.9458333 24.2204167-35.0824583z"/><path d="m97.9095833.00712075h-80.3767083v17.52471255h80.3767083z"/><path d="m97.9095833 17.5313333v14.4403334c0 .5967083-.0183333 1.1954583-.0370833 1.7942083h-17.5429167c.0175-.5994167.0266667-1.1975.0266667-1.7942083v-14.4403334z"/></g></svg>

<?xml version="1.0" encoding="UTF-8"?>
<svg width="98px" height="100px" viewBox="0 0 98 100" version="1.1" xmlns="http://www.w3.org/2000/svg" xmlns:xlink="http://www.w3.org/1999/xlink">
    <!-- Generator: Sketch 63.1 (92452) - https://sketch.com -->
    <title>guardarian-logo</title>
    <desc>Created with Sketch.</desc>
    <g id="Page-1" stroke="none" stroke-width="1" fill="none" fill-rule="evenodd">
        <g id="guardarian-logo" fill="#5364C2" fill-rule="nonzero">
            <path d="M80.5825,40.189625 C86.7079167,48.3645833 68.7695833,64.1670833 72.8004167,57.6404167 L34.59075,57.6404167 C30.457,52.235 27.6154583,46.3233333 26.2491667,40.189625 L80.5825,40.189625 Z" id="Path"></path>
            <path d="M69.5083333,87.2941667 C64.0783333,91.6233333 58.2079167,95.36875 51.99375,98.4691667 L48.9545833,100 L45.8970833,98.4754167 C17.1502083,84.0495833 0,59.2016667 0,31.9712083 L0,0 L17.5329167,0 L17.5329167,31.9712083 C17.5297917,34.0104583 17.6672917,36.0475417 17.9444583,38.0679167 C20.15225,54.61125 31.3189167,69.8725 48.88875,80.1483333 C48.9054167,80.16375 48.9241667,80.1770833 48.9445833,80.1870833 C48.9629167,80.1770833 48.9733333,80.1666667 48.9916667,80.1583333 L49.0658333,80.11125 C55.41625,83.6629167 62.3316667,86.0929167 69.5083333,87.2941667 Z" id="Path"></path>
            <path d="M97.36625,40.189625 C96.555,46.50875 94.8216667,52.6754167 92.2225,58.4920833 C87.4158333,69.2925 79.6916667,79.1216667 69.5166667,87.29875 C62.34375,86.09625 55.4316667,83.66625 49.0845833,80.1154167 C51.3775,78.76375 53.6004167,77.2970833 55.745,75.7204167 C55.95875,75.5820833 56.1645833,75.4325 56.3620833,75.2720833 C68.23875,66.7195833 76.795,54.32625 80.5825,40.189625 L97.36625,40.189625 Z" id="Path"></path>
            <polygon id="Path" points="97.9095833 0.00712075 17.532875 0.00712075 17.532875 17.5318333 97.9095833 17.5318333"></polygon>
            <path d="M97.9095833,17.5313333 L97.9095833,31.9716667 C97.9095833,32.568375 97.89125,33.167125 97.8725,33.765875 L80.3295833,33.765875 C80.3470833,33.1664583 80.35625,32.568375 80.35625,31.9716667 L80.35625,17.5313333 L97.9095833,17.5313333 Z" id="Path"></path>
        </g>
    </g>
</svg>
